X:10
T: Ladrangan Bima Kurda
N: C0000
O: Asien, Sdostasien, Indonesion, Java
N: Pelog Patet Barang.
N: Entnommen aus Lehrerband "Musik hren-machen-verstehen"
R: Nuclear Melody
M: 4/4
L: 1/8
K: F
A2A2A2E2 | A2A2A2E2 | AAEAABcB
A2A2A2E2 | A2A2A2E2 | A2A2A2E2
A2EA2BcB | A4A2E2
A2A2A2E2 | A2A2A2E2 | A2EA2BcB
A3AcABc | BcAcBcAc | BcAB2Bde | A2EA2BcB
A3AcABc | BcAcBcAc | BcAB2Bde | A2EA2BcB
A3AcABc | Bcefe2cB
A3AcABc | Bcefe2cB
ABFEEFAB | AcBABFAF
EBABcBAF | E^DEDBAFB
ABFEEFAB | AcBABFAF
EBABcBAF | E^DEDBAFB
A2A2A2E2 | A2A2A2E2 | A2A2A2E2
A2EA2BcB | A8

